X:1
T:Title
%%score { 1 | ( 2 3 ) }
L:1/8
M:4/4
K:G
V:1 treble nm="Grand Piano"
V:2 bass 
V:3 bass 
V:1
 z4 z2[Q:1/4=108] D>D | G2 G2 B2 A>G | [CEA]2 [CEG]4 [DG]>[DFA] | [DGB]2 [Fd]2 [DG]2 [DGB]2 | %4
[M:3/4] [DFA]6 |[M:1/4] D>D |[M:4/4] G2 G2 B2 A>G | [EA]2 [EG]4 [EG]>E | D2 G2 F2 E>F |[M:3/4] G6 | %10
[M:1/4] F>[EG] |[M:4/4] [FA]2 [FA]2 [DGB]2 [DGB]2 | [EGc]2 [EGc]4 [DFA]>[DFA] | %13
 [DGB]2 [DGB]2 [DA]2 [^CG]2 |[M:3/4] [DFd]6 |[M:1/4] [DFd]>[DFc] |[M:4/4] [DGB]2 [DB]>A G2 D2 | %17
 E2 [Ec]4 [Ec]>[EA] | G2 G2 F2 A2 |[M:3/4] G6 |] %20
V:2
 z4 z2 D,>D, | z4 z2 C2 | C,2 C,4 B,,>D, | G,2 [D,C]2 B,,2 G,,2 |[M:3/4] D,6 |[M:1/4] D,>D, | %6
[M:4/4][K:treble] z4 z2 C2 | [C,C]2 [C,C]4 [C,G,]>[C,G,C] | [D,G,B,]2 [D,B,D]2 [D,A,C]2 [D,A,C]2 | %9
[M:3/4] [G,B,]6 |[M:1/4] [D,A,D]>[D,A,] |[M:4/4] [D,D]2 [D,D]2 G,2 G,2 | C,2 C,4 D,>D, | %13
 G,2 G,2 F,2 E,2 |[M:3/4] D,6 |[M:1/4] D,>D, |[M:4/4] G,2 z z/ C/ [G,B,D]2 [G,B,]2 | %17
 [C,G,C]2 [C,G,]4 [C,G,]>[C,C] | [D,B,D]2 [D,B,D]2 [D,A,D]2 [D,F,C]2 |[M:3/4] [G,B,]6 |] %20
V:3
 x8 | [G,B,D]2 [G,B,D]2 [G,DG]2 [G,D]->[G,B,D] | x8 | x8 |[M:3/4] x6 |[M:1/4] x2 | %6
[M:4/4][K:treble] [G,B,D]2 [G,B,D]2 [G,DG]2 [G,D]->[G,B,D] | x8 | x8 |[M:3/4] x6 |[M:1/4] x2 | %11
[M:4/4] x8 | x8 | x8 |[M:3/4] x6 |[M:1/4] x2 |[M:4/4] z2 G,2 z4 | x8 | x8 |[M:3/4] x6 |] %20

